icons/basic_motorcycle.svg

<svg width="48" height="48" viewBox="0 0 48 48" fill="none" xmlns="http://www.w3.org/2000/svg">
<path fill-rule="evenodd" clip-rule="evenodd" d="M29.4157 10.598C29.2561 10.2347 28.8969 10 28.5 10H23V12H27.8469L29.603 16H27.7316C24.186 16 21.0297 18.0764 19.5815 21.2059L16.5517 18.2806C16.3653 18.1006 16.1163 18 15.8571 18H7C6.44771 18 6 18.4477 6 19V23C6 23.5523 6.44771 24 7 24H16.1707C16.0602 24.3128 16 24.6494 16 25C16 26.6569 17.3431 28 19 28H20.4116L21.8005 30.5H16.9236C16.4425 27.3849 13.7498 25 10.5 25C6.91015 25 4 27.9101 4 31.5C4 35.0899 6.91015 38 10.5 38C13.7498 38 16.4425 35.6151 16.9236 32.5H26.5C26.8011 32.5 27.0862 32.3643 27.2761 32.1306L33.3843 24.6129L34.0022 26.0204C32.1968 27.1752 31 29.1979 31 31.5C31 35.0899 33.9101 38 37.5 38C41.0899 38 44 35.0899 44 31.5C44 27.9101 41.0899 25 37.5 25C36.9238 25 36.3651 25.075 35.8332 25.2157L34.0953 21.2572L40.2135 22.1985L38.7849 13.6267L31.9067 16.2721L29.4157 10.598ZM22.6995 28L24.0884 30.5H26.024L31.3053 24H28V25C28 26.6569 26.6569 28 25 28H22.6995ZM25 26C25.5523 26 26 25.5523 26 25V24H19C18.4477 24 18 24.4477 18 25C18 25.5523 18.4477 26 19 26H25ZM27.7316 18C24.9932 18 22.5536 19.5934 21.4182 22H32.2371L30.4811 18H27.7316ZM32.7116 18.1054L33.1426 19.0871L37.7865 19.8015L37.2151 16.3733L32.7116 18.1054ZM10.5 27C12.6416 27 14.4338 28.496 14.8885 30.5H10.5C9.94772 30.5 9.5 30.9477 9.5 31.5C9.5 32.0523 9.94772 32.5 10.5 32.5H14.8885C14.4338 34.504 12.6416 36 10.5 36C8.01472 36 6 33.9853 6 31.5C6 29.0147 8.01472 27 10.5 27ZM33 31.5C33 30.0186 33.7159 28.7043 34.8205 27.8844L36.5843 31.902C36.8064 32.4077 37.3963 32.6377 37.902 32.4156C38.4077 32.1936 38.6376 31.6037 38.4156 31.098L36.6516 27.0799C36.9263 27.0274 37.21 27 37.5 27C39.9853 27 42 29.0147 42 31.5C42 33.9853 39.9853 36 37.5 36C35.0147 36 33 33.9853 33 31.5ZM15.4532 20L17.5246 22H8V20H15.4532Z" fill="black"/>
</svg>

<svg
  xmlns="http://www.w3.org/2000/svg"
  width="24"
  height="24"
  viewBox="0 0 24 24"
  fill="none"
  stroke="currentColor"
  stroke-width="2"
  stroke-linecap="round"
  stroke-linejoin="round"
>
  <path
    fill-rule="evenodd"
    d="M29.416 10.598A1 1 0 0 0 28.5 10H23v2h4.847l1.756 4h-1.871a8.98 8.98 0 0 0-8.15 5.206l-3.03-2.925a1 1 0 0 0-.695-.281H7a1 1 0 0 0-1 1v4a1 1 0 0 0 1 1h9.17A3 3 0 0 0 19 28h1.412l1.389 2.5h-4.877A6.502 6.502 0 0 0 4 31.5a6.5 6.5 0 0 0 12.924 1H26.5a1 1 0 0 0 .776-.37l6.108-7.517.618 1.407a6.5 6.5 0 1 0 1.831-.805l-1.738-3.958 6.119.941-1.43-8.571-6.877 2.645zM22.7 28l1.388 2.5h1.936l5.281-6.5H28v1a3 3 0 0 1-3 3zm2.3-2a1 1 0 0 0 1-1v-1h-7a1 1 0 1 0 0 2zm2.732-8a6.98 6.98 0 0 0-6.314 4h10.82l-1.757-4zm4.98.105.43.982 4.644.715-.57-3.429zM10.5 27a4.5 4.5 0 0 1 4.389 3.5H10.5a1 1 0 1 0 0 2h4.389A4.502 4.502 0 0 1 6 31.5a4.5 4.5 0 0 1 4.5-4.5M33 31.5c0-1.481.716-2.796 1.82-3.616l1.764 4.018a1 1 0 0 0 1.832-.804l-1.764-4.018q.412-.08.848-.08a4.5 4.5 0 1 1-4.5 4.5M15.453 20l2.072 2H8v-2z"
    clip-rule="evenodd"
  />
</svg>
